X: 244
T:Quaker's Wife
% Nottingham Music Database
S:Sam Sherry via Marlene
M:6/8
K:G
d|"G"gab d2b|"C"c'ba "D"bge|"G"gab "Em"deg|"D"aba a2d|
"G"gab d2b|"C"c'ba "D"bge|"G"gab "D"d2e|"G"gdB G2:|
g/2a/2|"G"bgg aga|"G"bgg age|"G"gab "Em"deg|"D"aba a2g/2a/2|
"G"bgg aga|"G"bgg age|"G"gab "D"d2e|"G"gdB G2:|
d|"G"ggg "D"aga|"Em"bge "D"dBG|"G"ggg gab|"D"aba a3|
"Em"gag "D"fgf|"C"efe "D"dBA|"G"GAB "D"D2E|"C"GGG "Em"G2:|


